X:1
T:Title
%%score { 1 | 2 }
L:1/8
Q:1/4=94
M:2/4
K:F
V:1 treble nm="Grand Piano"
V:2 bass 
V:1
 AA AA | [EB]2 [EG]2 | [DF][DF] [DF][DG] | [^CA]4 | [Fd][Fd] [Fd][Fd] | c2 A2 | Gc c=B | [EGc]4 | %8
w: B.~E.~Warren * * *||||||||
 [EGB][EGB] [CGB][CGB] | [CGB]2 [CFA]2 | [^FA][Ac] [GB][FA] | B4 | dc BA |[M:5/8] c2 [Ff]3 | %14
w: ||||||
[M:2/4] FF [EA][EG] | [A,F]4 | FG AF | [EG][FA] [GB][EG] | [CFA][CGB] [CAc][CFA] | %19
w: |||||
 [DFB][EFc] [Fd][FB] | [Ec][Fd] [Ge][Ec] | [Fd][Ge] [Af][CAc] | [CFA][A,_EF] [B,DG][DFB] | %23
w: ||||
[M:5/8] [CEA][B,EG] [F,A,F]3 |] %24
w: |
V:2
 [F,CF][F,CF] [F,CF][F,CF] | [C,C]2 [C,C]2 | [D,A,][D,F,] [B,,F,][B,,D,] | [A,,E,]4 | %4
 [B,,B,][B,,B,] [B,,B,][B,,B,] | [F,A,F]2 [F,CF]2 | [G,CE][G,CE] [G,DF][G,DF] | C,4 | C,C, C,C, | %9
 F,2 F,2 | [D,D][D,D] [D,D][D,D] | [G,DG]4 | [B,F][A,CF] [G,CE][F,CF] | %13
[M:5/8][K:bass] [F,A,F]2 [D,A,]3 |[M:2/4] [D,A,][D,A,] [C,C][C,B,] | [F,,F,]4 | %16
 [F,A,C][F,B,C] [F,CF][F,A,] | [C,C][C,C] [C,C][C,C] | F,F, F,F, | B,,B,, B,,D, | %20
 [C,C][C,C] [C,C][C,C] | [C,C][C,C] [F,C]F, | F,F, B,,B,, |[M:5/8] C,C, F,,3 |] %24

